dist/buttons/album.svg

<svg width="80" height="80" viewBox="0 0 80 80" fill="none" xmlns="http://www.w3.org/2000/svg">
<rect x="18" y="26" width="44" height="28" stroke="#4277FF" stroke-width="4"/>
<mask id="path-2-inside-1_207_1624" fill="white">
<path fill-rule="evenodd" clip-rule="evenodd" d="M33.8182 31C29.4 31 25.8182 34.5817 25.8182 39V56H39.4545H42.6015H53.0909V47C53.0909 42.5817 49.5092 39 45.0909 39H44.4545C43.7998 39 43.1745 39.1258 42.6015 39.3546V39C42.6015 34.5817 39.0197 31 34.6014 31H33.8182Z"/>
</mask>
<path d="M25.8182 56H21.8182V60H25.8182V56ZM53.0909 56V60H57.0909V56H53.0909ZM42.6015 39.3546H38.6015V45.2587L44.0847 43.0695L42.6015 39.3546ZM29.8182 39C29.8182 36.7909 31.6091 35 33.8182 35V27C27.1908 27 21.8182 32.3726 21.8182 39H29.8182ZM29.8182 56V39H21.8182V56H29.8182ZM39.4545 52H25.8182V60H39.4545V52ZM42.6015 52H39.4545V60H42.6015V52ZM53.0909 52H42.6015V60H53.0909V52ZM49.0909 47V56H57.0909V47H49.0909ZM45.0909 43C47.3 43 49.0909 44.7909 49.0909 47H57.0909C57.0909 40.3726 51.7183 35 45.0909 35V43ZM44.4545 43H45.0909V35H44.4545V43ZM44.0847 43.0695C44.1938 43.0259 44.3163 43 44.4545 43V35C43.2834 35 42.1552 35.2258 41.1182 35.6398L44.0847 43.0695ZM38.6015 39V39.3546H46.6015V39H38.6015ZM34.6014 35C36.8106 35 38.6015 36.7909 38.6015 39H46.6015C46.6015 32.3726 41.2289 27 34.6014 27V35ZM33.8182 35H34.6014V27H33.8182V35Z" fill="#4277FF" mask="url(#path-2-inside-1_207_1624)"/>
</svg>

<svg xmlns="http://www.w3.org/2000/svg" width="80" height="80" fill="none"><path stroke="#4277FF" stroke-width="4" d="M18 26h44v28H18z"/><mask id="a" fill="#fff"><path fill-rule="evenodd" d="M33.818 31a8 8 0 0 0-8 8v17h27.273v-9a8 8 0 0 0-8-8h-.636c-.655 0-1.28.126-1.853.355V39a8 8 0 0 0-8-8z" clip-rule="evenodd"/></mask><path fill="#4277FF" d="M25.818 56h-4v4h4zm27.273 0v4h4v-4zM42.6 39.355h-4v5.904l5.484-2.19zM29.819 39a4 4 0 0 1 4-4v-8c-6.627 0-12 5.373-12 12zm0 17V39h-8v17zm9.637-4H25.818v8h13.637zm3.147 0h-3.147v8h3.147zm10.489 0H42.6v8h10.49zm-4-5v9h8v-9zm-4-4a4 4 0 0 1 4 4h8c0-6.627-5.373-12-12-12zm-.636 0h.636v-8h-.636zm-.37.07a1 1 0 0 1 .37-.07v-8c-1.172 0-2.3.226-3.337.64zM38.602 39v.355h8V39zm-4-4a4 4 0 0 1 4 4h8c0-6.627-5.373-12-12-12zm-.784 0h.783v-8h-.783z" mask="url(#a)"/></svg>
